X: 690
T: Planxty Drew   #2
T: pleraca dreu
R: jig
%S: s:4 b:14(6+4+4)
C: O'Carolan
B: O'Neill's 1850 #690
Z: 1997 by John Chambers <jc@trillian.mit.edu>
N: Compacted via repeats and multiple endings [JC]
Q: "Spirited"
M: 6/8
L: 1/8
K: Gm
"^A"|: (G/A/) | BAG Bcd | (cd)B (AG)F |1 GDG G2A | BGG G2 :|2 (Gg)g (a/g/f).d | cA^F G2 |]
"^B"[| (B/A/) | GDG Bcd | Ggg gaf | gfd (c/B/A).G | Fff f2 |]
"^C"[| (f/g/) | .a(f/g/a/f/) .g(=e/f/g/e/) | .f(d/=e/f/d/) .c(A/=B/c/A/) | Ggg (a/g/f).d | cA^F G2 |]
